; generated by Slic3r 1.3.0 on 2022-10-03 at 13:19:12

; external perimeters extrusion width = 0.55mm (2.19mm^3/s)
; perimeters extrusion width = 0.70mm (5.72mm^3/s)
; infill extrusion width = 0.62mm (5.05mm^3/s)
; solid infill extrusion width = 0.70mm (3.81mm^3/s)
; top infill extrusion width = 0.70mm (2.86mm^3/s)
; support material extrusion width = 0.55mm (7.28mm^3/s)

M107
M190 S85 ; set bed temperature and wait for it to be reached
M104 S245 ; set temperature
G28 ; home all axes
G1 Z5 F5000 ; lift nozzle

; Filament gcode

M109 S245 ; set temperature and wait for it to be reached
G21 ; set units to millimeters
G90 ; use absolute coordinates
M82 ; use absolute distances for extrusion
G92 E0
;LAYER:0

G1 Z0.300 F7800.000
G1 E-0.50000 F2400.00000
G92 E0
G1 X82.170 Y81.679 F7800.000
G1 E0.50000 F2400.00000
G1 F1200
G1 X83.515 Y80.460 E0.61643
G1 X84.051 Y80.020 E0.66094
G1 X85.510 Y78.938 E0.77737
G1 X86.086 Y78.553 E0.82186
G1 X87.644 Y77.619 E0.93831
G1 X88.256 Y77.292 E0.98282
G1 X89.897 Y76.516 E1.09925
G1 X90.538 Y76.250 E1.14375
G1 X92.248 Y75.639 E1.26019
G1 X92.911 Y75.437 E1.30464
G1 X94.673 Y74.996 E1.42113
G1 X95.353 Y74.861 E1.46562
G1 X97.149 Y74.594 E1.58207
G1 X97.840 Y74.526 E1.62657
G1 X99.653 Y74.437 E1.74300
G1 X100.346 Y74.437 E1.78747
G1 X102.160 Y74.526 E1.90394
G1 X102.850 Y74.594 E1.94841
G1 X104.647 Y74.861 E2.06488
G1 X105.327 Y74.996 E2.10935
G1 X107.088 Y75.437 E2.22582
G1 X107.752 Y75.639 E2.27029
G1 X109.462 Y76.250 E2.38676
G1 X110.103 Y76.516 E2.43126
G1 X111.744 Y77.292 E2.54770
G1 X112.356 Y77.619 E2.59220
G1 X113.913 Y78.553 E2.70864
G1 X114.490 Y78.938 E2.75314
G1 X115.949 Y80.020 E2.86957
G1 X116.485 Y80.460 E2.91408
G1 X117.830 Y81.679 E3.03051
G1 X118.321 Y82.170 E3.07502
G1 X119.540 Y83.515 E3.19146
G1 X119.980 Y84.051 E3.23596
G1 X121.062 Y85.510 E3.35242
G1 X121.447 Y86.087 E3.39689
G1 X122.381 Y87.644 E3.51333
G1 X122.708 Y88.256 E3.55783
G1 X123.484 Y89.897 E3.67427
G1 X123.750 Y90.538 E3.71877
G1 X124.361 Y92.248 E3.83521
G1 X124.563 Y92.912 E3.87971
G1 X125.004 Y94.673 E3.99619
G1 X125.139 Y95.353 E4.04065
G1 X125.406 Y97.150 E4.15713
G1 X125.474 Y97.840 E4.20159
G1 X125.563 Y99.654 E4.31806
G1 X125.563 Y100.347 E4.36253
G1 X125.474 Y102.160 E4.47896
G1 X125.406 Y102.851 E4.52346
G1 X125.139 Y104.647 E4.63990
G1 X125.004 Y105.327 E4.68440
G1 X124.563 Y107.088 E4.80084
G1 X124.361 Y107.752 E4.84534
G1 X123.750 Y109.462 E4.96178
G1 X123.484 Y110.103 E5.00628
G1 X122.707 Y111.745 E5.12280
G1 X122.381 Y112.356 E5.16722
G1 X121.447 Y113.914 E5.28369
G1 X121.062 Y114.490 E5.32816
G1 X119.980 Y115.949 E5.44460
G1 X119.540 Y116.485 E5.48910
G1 X118.321 Y117.830 E5.60553
G1 X117.830 Y118.321 E5.65003
G1 X116.485 Y119.540 E5.76647
G1 X115.949 Y119.980 E5.81096
G1 X114.490 Y121.062 E5.92741
G1 X113.914 Y121.447 E5.97187
G1 X112.356 Y122.381 E6.08835
G1 X111.745 Y122.707 E6.13276
G1 X110.103 Y123.484 E6.24928
G1 X109.462 Y123.750 E6.29379
G1 X107.752 Y124.361 E6.41022
G1 X107.088 Y124.563 E6.45473
G1 X105.327 Y125.004 E6.57116
G1 X104.647 Y125.139 E6.61567
G1 X102.851 Y125.406 E6.73210
G1 X102.160 Y125.474 E6.77661
G1 X100.347 Y125.563 E6.89304
G1 X99.654 Y125.563 E6.93750
G1 X97.840 Y125.474 E7.05398
G1 X97.150 Y125.406 E7.09843
G1 X95.353 Y125.139 E7.21492
G1 X94.673 Y125.004 E7.25938
G1 X92.912 Y124.563 E7.37585
G1 X92.248 Y124.361 E7.42036
G1 X90.538 Y123.750 E7.53679
G1 X89.897 Y123.484 E7.58130
G1 X88.256 Y122.708 E7.69773
G1 X87.644 Y122.381 E7.74224
G1 X86.087 Y121.447 E7.85867
G1 X85.510 Y121.062 E7.90314
G1 X84.051 Y119.980 E8.01961
G1 X83.515 Y119.540 E8.06410
G1 X82.170 Y118.321 E8.18055
G1 X81.679 Y117.830 E8.22505
G1 X80.460 Y116.485 E8.34149
G1 X80.020 Y115.949 E8.38599
G1 X78.938 Y114.490 E8.50242
G1 X78.553 Y113.913 E8.54693
G1 X77.619 Y112.356 E8.66338
G1 X77.292 Y111.744 E8.70787
G1 X76.516 Y110.103 E8.82430
G1 X76.250 Y109.462 E8.86881
G1 X75.639 Y107.752 E8.98527
G1 X75.437 Y107.088 E9.02974
G1 X74.996 Y105.327 E9.14621
G1 X74.861 Y104.647 E9.19068
G1 X74.594 Y102.850 E9.30715
G1 X74.526 Y102.160 E9.35162
G1 X74.437 Y100.346 E9.46810
G1 X74.437 Y99.653 E9.51256
G1 X74.526 Y97.840 E9.62899
G1 X74.594 Y97.149 E9.67350
G1 X74.861 Y95.353 E9.78995
G1 X74.996 Y94.673 E9.83444
G1 X75.437 Y92.911 E9.95092
G1 X75.639 Y92.248 E9.99538
G1 X76.250 Y90.538 E10.11181
G1 X76.516 Y89.897 E10.15631
G1 X77.292 Y88.256 E10.27275
G1 X77.619 Y87.644 E10.31725
G1 X78.553 Y86.086 E10.43370
G1 X78.938 Y85.510 E10.47819
G1 X80.020 Y84.051 E10.59463
G1 X80.460 Y83.515 E10.63913
G1 X81.679 Y82.170 E10.75556
G1 X82.117 Y81.732 E10.79526
G1 X82.529 Y82.076 F7800.000
G1 F1200
G1 X83.875 Y80.857 E10.91169
G1 X84.370 Y80.450 E10.95283
G1 X85.829 Y79.368 E11.06926
G1 X86.362 Y79.012 E11.11038
G1 X87.919 Y78.079 E11.22683
G1 X88.485 Y77.776 E11.26796
G1 X90.126 Y77.000 E11.38440
G1 X90.719 Y76.755 E11.42553
G1 X92.428 Y76.143 E11.54196
G1 X93.041 Y75.957 E11.58305
G1 X94.803 Y75.516 E11.69953
G1 X95.432 Y75.391 E11.74065
G1 X97.228 Y75.124 E11.85710
G1 X97.866 Y75.061 E11.89823
G1 X99.679 Y74.972 E12.01467
G1 X100.320 Y74.972 E12.05576
G1 X102.134 Y75.061 E12.17223
G1 X102.772 Y75.124 E12.21333
G1 X104.568 Y75.391 E12.32980
G1 X105.197 Y75.516 E12.37090
G1 X106.958 Y75.957 E12.48737
G1 X107.572 Y76.143 E12.52847
G1 X109.281 Y76.755 E12.64494
G1 X109.874 Y77.000 E12.68607
G1 X111.515 Y77.776 E12.80250
G1 X112.081 Y78.079 E12.84364
G1 X113.638 Y79.012 E12.96007
G1 X114.171 Y79.368 E13.00120
G1 X115.630 Y80.450 E13.11764
G1 X116.125 Y80.857 E13.15877
G1 X117.471 Y82.076 E13.27521
G1 X117.924 Y82.529 E13.31634
G1 X119.143 Y83.875 E13.43279
G1 X119.550 Y84.370 E13.47391
G1 X120.632 Y85.829 E13.59037
G1 X120.988 Y86.362 E13.63147
G1 X121.921 Y87.919 E13.74791
G1 X122.224 Y88.485 E13.78904
G1 X123.000 Y90.126 E13.90548
G1 X123.245 Y90.719 E13.94661
G1 X123.857 Y92.428 E14.06304
G1 X124.043 Y93.042 E14.10418
G1 X124.484 Y94.803 E14.22065
G1 X124.609 Y95.432 E14.26174
G1 X124.876 Y97.228 E14.37822
G1 X124.939 Y97.866 E14.41931
G1 X125.028 Y99.680 E14.53578
G1 X125.028 Y100.321 E14.57688
G1 X124.939 Y102.134 E14.69331
G1 X124.876 Y102.772 E14.73445
G1 X124.609 Y104.568 E14.85088
G1 X124.484 Y105.197 E14.89201
G1 X124.043 Y106.958 E15.00845
G1 X123.857 Y107.572 E15.04958
G1 X123.245 Y109.281 E15.16602
G1 X123.000 Y109.874 E15.20715
G1 X122.223 Y111.516 E15.32366
G1 X121.921 Y112.081 E15.36472
G1 X120.988 Y113.639 E15.48119
G1 X120.632 Y114.171 E15.52229
G1 X119.550 Y115.630 E15.63873
G1 X119.143 Y116.125 E15.67985
G1 X117.924 Y117.471 E15.79629
G1 X117.471 Y117.924 E15.83742
G1 X116.125 Y119.143 E15.95385
G1 X115.630 Y119.550 E15.99498
G1 X114.171 Y120.632 E16.11142
G1 X113.639 Y120.988 E16.15252
G1 X112.081 Y121.921 E16.26899
G1 X111.516 Y122.223 E16.31004
G1 X109.874 Y123.000 E16.42656
G1 X109.281 Y123.245 E16.46769
G1 X107.572 Y123.857 E16.58412
G1 X106.958 Y124.043 E16.62526
G1 X105.197 Y124.484 E16.74169
G1 X104.568 Y124.609 E16.78282
G1 X102.772 Y124.876 E16.89926
G1 X102.134 Y124.939 E16.94039
G1 X100.321 Y125.028 E17.05683
G1 X99.680 Y125.028 E17.09792
G1 X97.866 Y124.939 E17.21439
G1 X97.228 Y124.876 E17.25548
G1 X95.432 Y124.609 E17.37196
G1 X94.803 Y124.484 E17.41305
G1 X93.042 Y124.043 E17.52953
G1 X92.428 Y123.857 E17.57066
G1 X90.719 Y123.245 E17.68710
G1 X90.126 Y123.000 E17.72823
G1 X88.485 Y122.224 E17.84466
G1 X87.919 Y121.921 E17.88580
G1 X86.362 Y120.988 E18.00223
G1 X85.829 Y120.632 E18.04334
G1 X84.370 Y119.550 E18.15980
G1 X83.875 Y119.143 E18.20092
G1 X82.529 Y117.924 E18.31737
G1 X82.076 Y117.471 E18.35850
G1 X80.857 Y116.125 E18.47493
G1 X80.450 Y115.630 E18.51607
G1 X79.368 Y114.171 E18.63250
G1 X79.012 Y113.638 E18.67364
G1 X78.079 Y112.081 E18.79008
G1 X77.776 Y111.515 E18.83120
G1 X77.000 Y109.874 E18.94764
G1 X76.755 Y109.281 E18.98877
G1 X76.143 Y107.572 E19.10523
G1 X75.957 Y106.958 E19.14634
G1 X75.516 Y105.197 E19.26280
G1 X75.391 Y104.568 E19.30391
G1 X75.124 Y102.772 E19.42037
G1 X75.061 Y102.134 E19.46147
G1 X74.972 Y100.320 E19.57795
G1 X74.972 Y99.679 E19.61904
G1 X75.061 Y97.866 E19.73547
G1 X75.124 Y97.228 E19.77661
G1 X75.391 Y95.432 E19.89305
G1 X75.516 Y94.803 E19.93418
G1 X75.957 Y93.041 E20.05066
G1 X76.143 Y92.428 E20.09174
G1 X76.755 Y90.719 E20.20818
G1 X77.000 Y90.126 E20.24931
G1 X77.776 Y88.485 E20.36574
G1 X78.079 Y87.919 E20.40688
G1 X79.012 Y86.362 E20.52333
G1 X79.368 Y85.829 E20.56445
G1 X80.450 Y84.370 E20.68088
G1 X80.857 Y83.875 E20.72201
G1 X82.076 Y82.529 E20.83845
G1 X82.476 Y82.129 E20.87477
G1 E20.37477 F2400.00000
G92 E0
G1 X112.869 Y112.869 F7800.000
G1 E0.50000 F2400.00000
G1 F1200
G1 X111.546 Y114.069 E0.61454
G1 X110.111 Y115.132 E0.72909
G1 X108.579 Y116.051 E0.84363
G1 X106.965 Y116.814 E0.95817
G1 X105.283 Y117.416 E1.07272
G1 X103.551 Y117.850 E1.18726
G1 X101.784 Y118.112 E1.30181
G1 X100.000 Y118.200 E1.41635
G1 X98.216 Y118.112 E1.53089
G1 X96.449 Y117.850 E1.64544
G1 X94.717 Y117.416 E1.75998
G1 X93.035 Y116.814 E1.87452
G1 X91.421 Y116.051 E1.98907
G1 X89.889 Y115.132 E2.10361
G1 X88.454 Y114.069 E2.21816
G1 X87.131 Y112.869 E2.33270
G1 X85.931 Y111.546 E2.44724
G1 X84.868 Y110.111 E2.56179
G1 X83.949 Y108.579 E2.67633
G1 X83.186 Y106.965 E2.79087
G1 X82.584 Y105.283 E2.90542
G1 X82.150 Y103.551 E3.01996
G1 X81.888 Y101.784 E3.13450
G1 X81.800 Y100.000 E3.24905
G1 X81.888 Y98.216 E3.36359
G1 X82.150 Y96.449 E3.47814
G1 X82.584 Y94.717 E3.59268
G1 X83.186 Y93.035 E3.70722
G1 X83.949 Y91.421 E3.82177
G1 X84.868 Y89.889 E3.93631
G1 X85.931 Y88.454 E4.05085
G1 X87.131 Y87.131 E4.16540
G1 X88.454 Y85.931 E4.27994
G1 X89.889 Y84.868 E4.39448
G1 X91.421 Y83.949 E4.50903
G1 X93.035 Y83.186 E4.62357
G1 X94.717 Y82.584 E4.73812
G1 X96.449 Y82.150 E4.85266
G1 X98.216 Y81.888 E4.96720
G1 X100.009 Y81.801 E5.08234
G1 X101.784 Y81.888 E5.19629
G1 X103.551 Y82.150 E5.31083
G1 X105.283 Y82.584 E5.42537
G1 X106.965 Y83.186 E5.53992
G1 X108.579 Y83.949 E5.65446
G1 X110.111 Y84.868 E5.76901
G1 X111.546 Y85.931 E5.88355
G1 X112.869 Y87.131 E5.99809
G1 X114.069 Y88.454 E6.11264
G1 X115.132 Y89.889 E6.22718
G1 X116.051 Y91.421 E6.34172
G1 X116.814 Y93.035 E6.45627
G1 X117.416 Y94.717 E6.57081
G1 X117.850 Y96.449 E6.68536
G1 X118.112 Y98.216 E6.79990
G1 X118.200 Y100.000 E6.91444
G1 X118.112 Y101.784 E7.02899
G1 X117.850 Y103.551 E7.14353
G1 X117.416 Y105.283 E7.25807
G1 X116.814 Y106.965 E7.37262
G1 X116.051 Y108.579 E7.48716
G1 X115.132 Y110.111 E7.60170
G1 X114.069 Y111.546 E7.71625
G1 X112.919 Y112.814 E7.82598
G1 X112.869 Y112.869 F7800.000
G1 X112.490 Y112.490 F7800.000
G1 F1200
G1 X111.206 Y113.654 E7.93715
G1 X109.813 Y114.687 E8.04832
G1 X108.326 Y115.578 E8.15949
G1 X106.759 Y116.319 E8.27066
G1 X105.127 Y116.903 E8.38182
G1 X103.446 Y117.324 E8.49299
G1 X101.731 Y117.578 E8.60416
G1 X100.000 Y117.663 E8.71533
G1 X98.269 Y117.578 E8.82650
G1 X96.554 Y117.324 E8.93767
G1 X94.873 Y116.903 E9.04884
G1 X93.241 Y116.319 E9.16000
G1 X91.674 Y115.578 E9.27117
G1 X90.187 Y114.687 E9.38234
G1 X88.794 Y113.654 E9.49351
G1 X87.510 Y112.490 E9.60468
G1 X86.346 Y111.206 E9.71585
G1 X85.313 Y109.813 E9.82702
G1 X84.422 Y108.326 E9.93818
G1 X83.681 Y106.759 E10.04935
G1 X83.097 Y105.127 E10.16052
G1 X82.676 Y103.446 E10.27169
G1 X82.422 Y101.731 E10.38286
G1 X82.337 Y100.000 E10.49403
G1 X82.422 Y98.269 E10.60520
G1 X82.676 Y96.554 E10.71636
G1 X83.097 Y94.873 E10.82753
G1 X83.681 Y93.241 E10.93870
G1 X84.422 Y91.674 E11.04987
G1 X85.313 Y90.187 E11.16104
G1 X86.346 Y88.794 E11.27221
G1 X87.510 Y87.510 E11.38338
G1 X88.794 Y86.346 E11.49454
G1 X90.187 Y85.313 E11.60571
G1 X91.674 Y84.422 E11.71688
G1 X93.241 Y83.681 E11.82805
G1 X94.873 Y83.097 E11.93922
G1 X96.554 Y82.676 E12.05039
G1 X98.268 Y82.422 E12.16154
G1 X100.009 Y82.337 E12.27331
G1 X101.731 Y82.422 E12.38389
G1 X103.446 Y82.676 E12.49506
G1 X105.127 Y83.097 E12.60623
G1 X106.759 Y83.681 E12.71740
G1 X108.326 Y84.422 E12.82856
G1 X109.813 Y85.313 E12.93973
G1 X111.206 Y86.346 E13.05090
G1 X112.490 Y87.510 E13.16207
G1 X113.654 Y88.794 E13.27324
G1 X114.687 Y90.187 E13.38441
G1 X115.578 Y91.674 E13.49558
G1 X116.319 Y93.241 E13.60674
G1 X116.903 Y94.873 E13.71791
G1 X117.324 Y96.554 E13.82908
G1 X117.578 Y98.269 E13.94025
G1 X117.663 Y100.000 E14.05142
G1 X117.578 Y101.731 E14.16259
G1 X117.324 Y103.446 E14.27376
G1 X116.903 Y105.127 E14.38492
G1 X116.319 Y106.759 E14.49609
G1 X115.578 Y108.326 E14.60726
G1 X114.687 Y109.813 E14.71843
G1 X113.654 Y111.206 E14.82960
G1 X112.540 Y112.434 E14.93596
G1 X111.703 Y111.703 F7800.000
G1 F1200
G1 X110.499 Y112.794 E15.04012
G1 X109.195 Y113.761 E15.14428
G1 X107.802 Y114.596 E15.24845
G1 X106.334 Y115.291 E15.35261
G1 X104.804 Y115.838 E15.45678
G1 X103.229 Y116.232 E15.56094
G1 X101.622 Y116.471 E15.66510
G1 X100.000 Y116.550 E15.76927
G1 X98.378 Y116.471 E15.87343
G1 X96.771 Y116.232 E15.97759
G1 X95.196 Y115.838 E16.08176
G1 X93.666 Y115.291 E16.18592
G1 X92.198 Y114.596 E16.29008
G1 X90.805 Y113.761 E16.39425
G1 X89.501 Y112.794 E16.49841
G1 X88.297 Y111.703 E16.60257
G1 X87.206 Y110.499 E16.70674
G1 X86.239 Y109.195 E16.81090
G1 X85.404 Y107.802 E16.91506
G1 X84.709 Y106.334 E17.01923
G1 X84.162 Y104.804 E17.12339
G1 X83.768 Y103.229 E17.22756
G1 X83.529 Y101.622 E17.33172
G1 X83.450 Y100.000 E17.43588
G1 X83.529 Y98.378 E17.54005
G1 X83.768 Y96.771 E17.64421
G1 X84.162 Y95.196 E17.74837
G1 X84.709 Y93.666 E17.85254
G1 X85.404 Y92.198 E17.95670
G1 X86.239 Y90.805 E18.06086
G1 X87.206 Y89.501 E18.16503
G1 X88.297 Y88.297 E18.26919
G1 X89.501 Y87.206 E18.37335
G1 X90.805 Y86.239 E18.47752
G1 X92.198 Y85.404 E18.58168
G1 X93.666 Y84.709 E18.68585
G1 X95.196 Y84.162 E18.79001
G1 X96.771 Y83.768 E18.89417
G1 X98.378 Y83.529 E18.99834
G1 X99.990 Y83.450 E19.10188
G1 X101.622 Y83.529 E19.20665
G1 X103.229 Y83.768 E19.31082
G1 X104.804 Y84.162 E19.41499
G1 X106.334 Y84.709 E19.51915
G1 X107.802 Y85.404 E19.62331
G1 X109.195 Y86.239 E19.72748
G1 X110.499 Y87.206 E19.83164
G1 X111.703 Y88.297 E19.93581
G1 X112.794 Y89.501 E20.03997
G1 X113.761 Y90.805 E20.14413
G1 X114.596 Y92.198 E20.24830
G1 X115.291 Y93.666 E20.35246
G1 X115.838 Y95.196 E20.45662
G1 X116.232 Y96.771 E20.56079
G1 X116.471 Y98.378 E20.66495
G1 X116.550 Y100.000 E20.76911
G1 X116.471 Y101.622 E20.87328
G1 X116.232 Y103.229 E20.97744
G1 X115.838 Y104.804 E21.08160
G1 X115.291 Y106.334 E21.18577
G1 X114.596 Y107.802 E21.28993
G1 X113.761 Y109.195 E21.39409
G1 X112.794 Y110.499 E21.49826
G1 X111.753 Y111.647 E21.59761
G1 X111.703 Y111.703 F7800.000
G1 X112.100 Y112.063 F7800.000
G1 F1200
G1 X110.840 Y113.208 E21.70683
G1 X109.493 Y114.207 E21.81437
G1 X108.055 Y115.069 E21.92191
G1 X106.539 Y115.786 E22.02945
G1 X104.960 Y116.351 E22.13698
G1 X103.333 Y116.758 E22.24452
G1 X101.675 Y117.004 E22.35206
G1 X100.000 Y117.087 E22.45960
G1 X98.325 Y117.004 E22.56714
G1 X96.667 Y116.758 E22.67468
G1 X95.040 Y116.351 E22.78222
G1 X93.461 Y115.786 E22.88976
G1 X91.945 Y115.069 E22.99729
G1 X90.507 Y114.207 E23.10483
G1 X89.160 Y113.208 E23.21237
G1 X87.918 Y112.082 E23.31991
G1 X86.792 Y110.840 E23.42745
G1 X85.793 Y109.493 E23.53499
G1 X84.931 Y108.055 E23.64253
G1 X84.214 Y106.539 E23.75006
G1 X83.649 Y104.960 E23.85760
G1 X83.242 Y103.333 E23.96514
G1 X82.996 Y101.675 E24.07268
G1 X82.913 Y100.000 E24.18022
G1 X82.996 Y98.325 E24.28776
G1 X83.242 Y96.667 E24.39530
G1 X83.649 Y95.040 E24.50284
G1 X84.214 Y93.461 E24.61037
G1 X84.931 Y91.945 E24.71791
G1 X85.793 Y90.507 E24.82545
G1 X86.792 Y89.160 E24.93299
G1 X87.918 Y87.918 E25.04053
G1 X89.160 Y86.792 E25.14807
G1 X90.507 Y85.793 E25.25561
G1 X91.945 Y84.931 E25.36314
G1 X93.461 Y84.214 E25.47068
G1 X95.040 Y83.649 E25.57822
G1 X96.667 Y83.242 E25.68576
G1 X98.325 Y82.996 E25.79330
G1 X99.990 Y82.914 E25.90021
G1 X101.675 Y82.996 E26.00836
G1 X103.333 Y83.242 E26.11591
G1 X104.960 Y83.649 E26.22345
G1 X106.539 Y84.214 E26.33099
G1 X108.055 Y84.931 E26.43853
G1 X109.493 Y85.793 E26.54607
G1 X110.840 Y86.792 E26.65361
G1 X112.082 Y87.918 E26.76114
G1 X113.208 Y89.160 E26.86868
G1 X114.207 Y90.507 E26.97622
G1 X115.069 Y91.945 E27.08376
G1 X115.786 Y93.461 E27.19130
G1 X116.351 Y95.040 E27.29884
G1 X116.758 Y96.667 E27.40638
